!!!COM: Palestrina, Giovanni Perluigi da
!!!OPR: L'homme arme (1570)
!!!OTL: Sanctus
**kern	**kern	**kern	**kern	**kern
*Ibass	*Itenor	*Itenor	*Icalto	*Icant
!Bassus	!Tenor 2	!Tenor 1	!Altus	!Cantus
*clefF4	*clefGv2	*clefGv2	*clefG2	*clefG2
*k[]	*k[]	*k[]	*k[]	*k[]
*G:mix	*G:mix	*G:mix	*G:mix	*G:mix
*M4/2	*M4/2	*M4/2	*M4/2	*M4/2
=1	=1	=1	=1	=1
0r	0r	0r	0r	0g
=2	=2	=2	=2	=2
0r	1r	0r	1.c	0g
.	[1c	.	.	.
.	.	.	2d	.
=3	=3	=3	=3	=3
0r	2c]	0r	2e	0cc
.	2d	.	2f	.
.	2e	.	2g	.
.	2f	.	2a	.
=4	=4	=4	=4	=4
0r	2g	0r	2e	0cc
.	2a	.	2f	.
.	2e	.	2g	.
.	2f	.	[2a	.
=5	=5	=5	=5	=5
0r	1g	0r	4a]	1b
.	.	.	4g	.
.	.	.	1g	.
.	1d	.	.	1a
.	.	.	2f#	.
=6	=6	=6	=6	=6
1.C	1.e	0r	1.g	1g
.	.	.	.	[1g
2D	2d	.	2f	.
=7	=7	=7	=7	=7
2E	1c	[0G	1e	2g]
2F	.	.	.	2a
2G	1B	.	1d	2b
2A	.	.	.	2cc
=8	=8	=8	=8	=8
2B	1r	1G]	2r	2dd
2c	.	.	2.g	2ee
2d	[1g	[1G	.	2b
.	.	.	4f	.
[2c	.	.	2e	2cc
=9	=9	=9	=9	=9
2c]	1g]	0G]	0d	0dd
4B	.	.	.	.
4A	.	.	.	.
1B	1g	.	.	.
=10	=10	=10	=10	=10
2c	1.g	0c	1.e	1cc
1C	.	.	.	.
.	.	.	.	[1g
2D	2f	.	2f	.
=11	=11	=11	=11	=11
2E	1e	1c	1g	2g]
2F	.	.	.	2a
1G	[1d	1B	2r	2.b
.	.	.	[2g	.
.	.	.	.	4cc
=12	=12	=12	=12	=12
0D	0d]	0A	2g]	1dd
.	.	.	4f	.
.	.	.	4e	.
.	.	.	1f#	2r
.	.	.	.	[2dd
=13	=13	=13	=13	=13
1G	1B	[0G	[0g	2dd]
.	.	.	.	2b
1C	2r	.	.	2cc
.	[2c	.	.	[2ee
=14	=14	=14	=14	=14
0r	2c]	1G]	1g]	2ee]
.	2B	.	.	2dd
.	2c	1r	2r	2cc
.	2e	.	[2g	2b
=15	=15	=15	=15	=15
1r	2c	0r	2g]	1a
.	2.d	.	2f#	.
[1G	.	.	2g	1g
.	4c	.	.	.
.	4B-	.	[2b-	.
.	4A	.	.	.
=16	=16	=16	=16	=16
2G]	2G	[0d	2b-]	0r
2F#	2A	.	2a	.
2G	2.B-	.	2g	.
[2B-	.	.	2f	.
.	4A	.	.	.
=17	=17	=17	=17	=17
2B-]	2G	1d]	2g	1r
2A	2F#	.	2a	.
2G	2G	1d	2b-	1dd
2F	[2d	.	2a	.
=18	=18	=18	=18	=18
1E	2d]	1G	1g	2ee
.	2c#	.	.	2ee
1D	2d	1r	2f	2.ff
.	[2f	.	[2a	.
.	.	.	.	4ee
=19	=19	=19	=19	=19
0r	2f]	0r	2a]	2dd
.	2e	.	2g	2cc
.	2d	.	2f	2dd
.	2c	.	2g	[2ee
=20	=20	=20	=20	=20
0r	1B-	0r	2f	4ee]
.	.	.	.	4dd
.	.	.	2d	1dd
.	1A	.	1e	.
.	.	.	.	2cc#
=21	=21	=21	=21	=21
2r	0r	1d	2f	1dd
2G	.	.	2b-	.
2F#	.	[1d	2a	2r
2G	.	.	[2b-	2g
=22	=22	=22	=22	=22
2.B-	0r	0d]	4b-]	2f
.	.	.	4a	.
.	.	.	4g	2g
4A	.	.	4f	.
2G	.	.	2g	2b-
2F#	.	.	2a	2a
=23	=23	=23	=23	=23
1G	2r	[0d	1b-	1g
.	1g	.	.	.
1D	.	.	1a	2r
.	2f#	.	.	[2dd
=24	=24	=24	=24	=24
1G	2g	1d]	0g	2dd]
.	2d	.	.	2b
2.C	2.e	1c	.	2cc
.	.	.	.	[2ee
4D	4f	.	.	.
=25	=25	=25	=25	=25
4E	1g	0B	1r	2ee]
4F	.	.	.	.
4G	.	.	.	4dd
4A	.	.	.	4cc
4B	1G	.	1d	2dd
4c	.	.	.	.
[2d	.	.	.	2b
=26	=26	=26	=26	=26
4d]	2.c	1A	2e	2cc
4c	.	.	.	.
1c	.	.	2c	1ee
.	4d	.	.	.
.	4e	1G	1g	.
.	4f	.	.	.
2B	[2g	.	.	[2dd
=27	=27	=27	=27	=27
1A	2g]	0r	2c	4dd]
.	.	.	.	4cc
.	2f#	.	2d	2.cc
1G	1g	.	4e	.
.	.	.	4f	4b
.	.	.	[2g	4b
.	.	.	.	8a
.	.	.	.	8g
=28	=28	=28	=28	=28
1r	0r	[0d	2g]	1a
.	.	.	2f	.
1G	.	.	1b-	2g
.	.	.	.	2g
=29	=29	=29	=29	=29
2F#	2r	1d]	2a	2a
2G	1G	.	2g	2b-
2B-	.	[1d	1r	2g
2A	2F	.	.	2a
=30	=30	=30	=30	=30
1G	2G	0d]	2r	2b-
.	2B-	.	1g	2g
1D	1A	.	.	1a
.	.	.	2f#	.
=31	=31	=31	=31	=31
2.B-	1.G	[0d	2g	1r
.	.	.	1b-	.
4A	.	.	.	.
2G	.	.	.	1dd
2F#	2A	.	2a	.
=32	=32	=32	=32	=32
1G	1B-	1d]	2g	2dd
.	.	.	2f	2dd
1C	[1G	1c	1e	2ee
.	.	.	.	2cc
=33	=33	=33	=33	=33
1G	1G]	1B	2d	1dd
.	.	.	1g	.
1D	2r	1A	.	1dd
.	[2d	.	2f#	.
=34	=34	=34	=34	=34
2r	2d]	[0G	[0g	1b
1E	2B	.	.	.
.	2c	.	.	2r
2C	2e	.	.	[2cc
=35	=35	=35	=35	=35
1G	2d	0G]	0g]	2cc]
.	2.e	.	.	2b
2.C	.	.	.	2cc
.	4d	.	.	.
.	2c	.	.	[2ee
4D	.	.	.	.
=36	=36	=36	=36	=36
2E	1B	[0G	[0g	2ee]
2BB	.	.	.	2dd
2C	1e	.	.	2cc
2C	.	.	.	2cc
=37	=37	=37	=37	=37
0G	0d	0G]	0g]	0b
*	*	*	*	*-
!! Pleni
*Itenor	*Itenor	*Icant	*Icant
!Tenor 2	!Tenor 1	!Cantus 2	!Cantus 1
*clefGv2	*clefGv2	*clefG2	*clefG2
*k[]	*k[]	*k[]	*k[]
*G:mix	*G:mix	*G:mix	*G:mix
*M4/2	*M4/2	*M4/2	*M4/2
=38	=38	=38	=38
1d	0r	0r	0r
2d	.	.	.
2d	.	.	.
=39	=39	=39	=39
1e	0r	0r	1r
2d	.	.	1dd
4G	.	.	.
4A	.	.	.
=40	=40	=40	=40
4B	0r	0r	2dd
4c	.	.	.
4d	.	.	2dd
4B	.	.	.
4c	.	.	1ee
4d	.	.	.
4e	.	.	.
4f#	.	.	.
=41	=41	=41	=41
1g	0r	1dd	2dd
.	.	.	4g
.	.	.	4a
1g	.	2dd	4b
.	.	.	4cc
.	.	2dd	4dd
.	.	.	4b
=42	=42	=42	=42
1c	0r	1ee	1cc
[1g	.	2dd	2.b
.	.	4g	.
.	.	4a	4cc
=43	=43	=43	=43
2g]	0r	4b	1dd
.	.	4cc	.
2f	.	2.dd	.
2.e	.	.	1ee
.	.	4cc	.
.	.	[2cc	.
8d	.	.	.
8c	.	.	.
=44	=44	=44	=44
1d	0r	2cc]	1ff
.	.	2b	.
1c	.	2cc	2ee
.	.	2ee	[2cc
=45	=45	=45	=45
1G	1r	1dd	2cc]
.	.	.	4b
.	.	.	4a
2r	[1g	2r	[1b
2G	.	2dd	.
=46	=46	=46	=46
2G	1g]	2dd	1b]
2G	.	2dd	.
1c	1g	1ee	1cc
=47	=47	=47	=47
2d	0f	2.dd	1a
2d	.	.	.
.	.	8cc	.
.	.	8b	.
2.d	.	1a	2r
.	.	.	2a
8c	.	.	.
8B	.	.	.
=48	=48	=48	=48
2A	1f	1r	2a
2d	.	.	2a
[1G	[1g	1dd	2b
.	.	.	4g
.	.	.	4a
=49	=49	=49	=49
1G]	1g]	2dd	4b
.	.	.	4cc
.	.	4g	2.dd
.	.	4a	.
1r	1g	4b	.
.	.	4cc	4cc
.	.	[2dd	2b
=50	=50	=50	=50
0r	[0d	4dd]	2a
.	.	4cc	.
.	.	2b	2.dd
.	.	2a	.
.	.	.	4cc
.	.	2dd	2b
=51	=51	=51	=51
1r	1d]	2cc	2a
.	.	2b	1g
1d	1r	1a	.
.	.	.	2f#
=52	=52	=52	=52
2c	0r	2r	1g
2B	.	2dd	.
2.e	.	2cc	1r
.	.	2b	.
4d	.	.	.
=53	=53	=53	=53
2c	0g	2ee	2r
2B	.	2dd	2dd
2c	.	2ee	2cc
2G	.	2dd	2b
=54	=54	=54	=54
1c	1g	2.cc	1ee
.	.	4b	.
[1d	[1f	[1a	[1dd
=55	=55	=55	=55
1d]	1f]	1a]	2dd]
.	.	.	4cc
.	.	.	4b
1d	1f	2r	4a
.	.	.	4g
.	.	2dd	2a
=56	=56	=56	=56
2e	0g	2cc	1g
2e	.	2b	.
2.c	.	2.ee	1r
4d	.	4dd	.
=57	=57	=57	=57
4e	1g	2cc	0r
4f	.	.	.
1g	.	2b	.
.	1d	1a	.
2f#	.	.	.
=58	=58	=58	=58
1g	0r	2g	1dd
.	.	2b	.
1r	.	2a	2cc
.	.	2g	2b
=59	=59	=59	=59
0r	0r	4cc	2.ee
.	.	4b	.
.	.	4cc	.
.	.	4dd	4dd
.	.	4ee	2cc
.	.	4ff	.
.	.	[2gg	2b
=60	=60	=60	=60
1d	1r	2gg]	1a
.	.	2ff	.
2c	[1g	2ee	2r
2B	.	2dd	2dd
=61	=61	=61	=61
2.e	1g]	1r	2cc
.	.	.	2b
4d	.	.	.
2c	1g	2r	2ee
2B	.	2gg	[2dd
=62	=62	=62	=62
1A	0a	2ff	4dd]
.	.	.	4cc
.	.	2ee	2cc
1F	.	1ff	2a
.	.	.	[2cc
=63	=63	=63	=63
1G	1g	2ee	2cc]
.	.	1dd	2b
[1d	[1f	.	2a
.	.	4cc	[2ff
.	.	4b	.
=64	=64	=64	=64
1d]	1f]	0a	4ff]
.	.	.	4ee
.	.	.	1dd
1A	1e	.	.
.	.	.	2cc#
=65	=65	=65	=65
1d	1d	2r	1dd
.	.	2.dd	.
1g	1r	.	2r
.	.	4cc	.
.	.	2b	2dd
=66	=66	=66	=66
2f	0r	2a	2dd
2e	.	2b	2ee
2.a	.	2.cc	2.ff
4g	.	4b	4ee
=67	=67	=67	=67
2f	0r	2a	2dd
2e	.	2g	2cc#
2d	.	2a	1dd
2d	.	2ff	.
=68	=68	=68	=68
2c	0g	2ee	0r
2B	.	2dd	.
2.e	.	2.gg	.
4d	.	4ff	.
=69	=69	=69	=69
2c	1g	2ee	1r
2B	.	2dd	.
2A	[1a	2cc	2r
2d	.	2dd	2ff
=70	=70	=70	=70
2c	1a]	2r	2ee
2d	.	2dd	2ff
2.e	[1g	2cc	2.gg
.	.	2b	.
4d	.	.	4ff
=71	=71	=71	=71
4c	1g]	2.cc	4ee
4B	.	.	4dd
2c	.	.	2.ee
.	.	4b-	.
1d	1f	[1a	.
.	.	.	4dd
.	.	.	[2dd
=72	=72	=72	=72
1A	1e	1a]	2dd]
.	.	.	2cc#
[1d	[1d	[1a	[1dd
=73	=73	=73	=73
1d]	1d]	1a]	1dd]
*-	*-	*-	*-
!! Hosanna
**kern	**kern	**kern	**kern	**kern
*Ibass	*Itenor	*Itenor	*Icalto	*Icant
!Bassus	!Tenor 2	!Tenor 1	!Altus	!Cantus
*clefF4	*clefGv2	*clefGv2	*clefG2	*clefG2
*k[]	*k[]	*k[]	*k[]	*k[]
*G:mix	*G:mix	*G:mix	*G:mix	*G:mix
*M3/2	*M3/2	*M3/2	*M3/2	*M3/2
=74	=74	=74	=74	=74
1G	1g	1r	1r	1r
2G	2g	2r	2r	2r
=75	=75	=75	=75	=75
1c	2e	1r	1r	1r
.	2.a	.	.	.
2c	.	2r	2r	2r
.	4g	.	.	.
=76	=76	=76	=76	=76
2B	2.g	1r	1r	1r
1A	.	.	.	.
.	8f	.	.	.
.	8e	.	.	.
.	2f#	2r	2r	2r
=77	=77	=77	=77	=77
1.G	2g	1r	1d	1dd
.	2r	.	.	.
.	2G	2r	2d	2dd
=78	=78	=78	=78	=78
1r	2B	1r	1g	2b
.	2.c	.	.	2.ee
2r	.	2r	2g	.
.	4B	.	.	4dd
=79	=79	=79	=79	=79
1r	2d	1r	2f	2.dd
.	1A	.	1e	.
.	.	.	.	8cc
.	.	.	.	8b
2r	.	2r	.	2cc#
=80	=80	=80	=80	=80
1r	1.d	1G	2d	2.dd
.	.	.	2g	.
.	.	.	.	4cc
2r	.	2G	2g	4b
.	.	.	.	4a
=81	=81	=81	=81	=81
1r	1r	1c	2e	2g
.	.	.	2.a	2cc
2r	2r	2c	.	2ee
.	.	.	4g	.
=82	=82	=82	=82	=82
2r	1d	2B	2g	2.dd
2D	.	1A	4f	.
.	.	.	4e	8cc
.	.	.	.	8b
2D	2d	.	2f#	2a
=83	=83	=83	=83	=83
1G	2B	1G	1g	1.b
.	2.e	.	.	.
2G	.	2r	2r	.
.	4d	.	.	.
=84	=84	=84	=84	=84
2F	2.d	1r	2a	1r
1E	.	.	2g	.
.	8c	.	.	.
.	8B	.	.	.
.	2c#	2r	2e	2r
=85	=85	=85	=85	=85
1.D	1d	2r	1f#	1a
.	.	2d	.	.
.	2r	2d	2f#	2a
=86	=86	=86	=86	=86
1r	1r	1G	1g	2b
.	.	.	.	2.dd
2r	2r	2d	2f	.
.	.	.	.	4cc
=87	=87	=87	=87	=87
1r	1r	2d	4d	2b
.	.	.	4e	.
.	.	2d	4f	4a
.	.	.	4d	4g
2r	2r	2c	4e	2a
.	.	.	4f#	.
=88	=88	=88	=88	=88
1r	2d	2B	1g	2b
.	2e	1A	.	1cc
2r	2c	.	2f#	.
=89	=89	=89	=89	=89
2r	1d	[1.G	[1.g	2.b
2G	.	.	.	.
.	.	.	.	4cc
2G	2B	.	.	2dd
=90	=90	=90	=90	=90
1C	1c	1.G]	1.g]	2ee
.	.	.	.	2cc
2G	4B	.	.	[2dd
.	4A	.	.	.
=91	=91	=91	=91	=91
2G	4B	1r	1g	2dd]
.	4c	.	.	.
2G	2.d	.	.	2b
2F	.	2r	2a	2cc
.	4c	.	.	.
=92	=92	=92	=92	=92
2E	1c	1r	2g	2r
1D	.	.	1f	2dd
.	2B	2r	.	2dd
=93	=93	=93	=93	=93
1.C	1.c	1g	1e	2.ee
.	.	.	.	4dd
.	.	2g	2r	4cc
.	.	.	.	4b
=94	=94	=94	=94	=94
1r	1r	1f	1d	2.a
.	.	.	.	4g
2r	2r	2f	2d	2a
=95	=95	=95	=95	=95
1c	1r	1g	2.e	1g
.	.	.	4d	.
2c	2r	2g	4e	2r
.	.	.	4f	.
=96	=96	=96	=96	=96
1B	1G	1.d	2.g	1dd
.	.	.	8f	.
.	.	.	8e	.
2B	2G	.	2d	2dd
=97	=97	=97	=97	=97
1c	2.g	1r	2c	2.ee
.	.	.	2cc	.
.	4f	.	.	4dd
2c	2e	2r	2cc	4ee
.	.	.	.	4ff
=98	=98	=98	=98	=98
1G	2d	1g	2.b	2.gg
.	2e	.	.	.
.	.	.	8a	4ff
.	.	.	8b	.
2r	2c	2g	2cc	2ee
=99	=99	=99	=99	=99
1r	1d	1f	2a	2.dd
.	.	.	2d	.
.	.	.	.	8cc
.	.	.	.	8b
2r	2r	2f	2d	2a
=100	=100	=100	=100	=100
1c	1r	1g	2.e	1g
.	.	.	4d	.
2c	2r	2g	4e	2r
.	.	.	4f	.
=101	=101	=101	=101	=101
1B	1G	1.d	2.g	1dd
.	.	.	8f	.
.	.	.	8e	.
2B	2G	.	2d	2dd
=102	=102	=102	=102	=102
1c	2.g	1r	2c	2.ee
.	.	.	2cc	.
.	4f	.	.	4dd
2c	2e	2r	2cc	4ee
.	.	.	.	4ff
=103	=103	=103	=103	=103
1.G	1.d	1g	1b	2.gg
.	.	.	.	8ff
.	.	.	.	8ee
.	.	2g	2b	2dd
=104	=104	=104	=104	=104
1r	1r	1a	1cc	2ff
.	.	.	.	2.ee
2r	2r	2g	2b	.
.	.	.	.	4dd
=105	=105	=105	=105	=105
1r	2r	2f	1.a	1dd
.	2A	1e	.	.
2r	2A	.	.	2cc#
=106	=106	=106	=106	=106
1G	2.B	1.d	2r	1.dd
.	.	.	2g	.
.	4c	.	.	.
2G	2d	.	2g	.
=107	=107	=107	=107	=107
1A	1c	1r	2f	1r
.	.	.	4e	.
.	.	.	4d	.
2G	2B	2r	2e	2r
=108	=108	=108	=108	=108
2F	2A	1r	2f	1cc
1E	1G	.	2g	.
.	.	2r	2e	2cc
=109	=109	=109	=109	=109
2.D	1A	1r	2.f	1dd
4E	.	.	4g	.
2F	2r	2r	2a	2cc
=110	=110	=110	=110	=110
2G	1d	1r	1g	2b
1D	.	.	.	1a
.	2d	2r	2f#	.
=111	=111	=111	=111	=111
1r	1e	1r	2.g	4g
.	.	.	.	4a
.	.	.	.	4b
.	.	.	4e	4g
2r	2d	2r	2f	4a
.	.	.	.	4b
=112	=112	=112	=112	=112
1r	2c	1g	2e	2cc
.	1B	.	1d	1dd
2r	.	2g	.	.
=113	=113	=113	=113	=113
1r	2.A	1a	2e	2.cc
.	.	.	2.cc	.
.	4B	.	.	4dd
2r	2c	2g	.	2ee
.	.	.	4b	.
=114	=114	=114	=114	=114
1r	2d	2f	4a	1dd
.	.	.	4g	.
.	1A	1e	1a	.
2r	.	.	.	2cc#
=115	=115	=115	=115	=115
1G	1B	1.d	2.g	2dd
.	.	.	.	2g
.	.	.	4f	.
2G	2B	.	4d	2b
.	.	.	4e	.
=116	=116	=116	=116	=116
1A	1c	1r	2f	4a
.	.	.	.	4b
.	.	.	2e	4cc
.	.	.	.	4dd
2G	2B	2r	2g	2ee
=117	=117	=117	=117	=117
2F	2A	1c	2a	2ff
1E	1e	.	1g	2gg
.	.	2c	.	2ee
=118	=118	=118	=118	=118
2D	2A	1d	2f	1ff
2BB-	2B-	.	2d	.
2C	[2G	2c	2e	2ee
=119	=119	=119	=119	=119
2G	2G]	2B-	1g	1dd
1D	1d	1A	.	.
.	.	.	2f#	2dd
=120	=120	=120	=120	=120
1.G	1.d	1.G	1.g	1.b
==	==	==	==	==
*-	*-	*-	*-	*-
!!!CDT: 1525/^1526/-1594/2/2
!!!OCY: Italia
!!!AGN: Mass (Tenor)
!!!AST: renaissance, vocal
!!!ASW: Popular Song
!!!PWK: Masses, Book 3
!!!RNB: Cadence finals: C,D
!!!YOR: Le Opere Complete, v. 6, p. 97
!!!YOO: Rome, Italy: Fratelli Scalera
!!!END: 1992//
!!!EED: John Miller
!!!YEC: Copyright 2000, John Miller
!!!YEN: United States of America
!!!YEM: Rights to all derivative electronic formats reserved.
!!!YEM: Refer to licensing agreement for further details.
!!!YEM: This file must be accompanied by the licensing agreement.
!!!YEM: A copy of the licensing agreement may be found at http://www.music-cog.ohio-state.edu/HumdrumDatabases/Palestrina/license.txt
!!!EMD: converted to Humdrum by Bret Aarden
